incomeartour/img/icons/calendar-oct.svg

<svg width="26" height="26" viewBox="0 0 26 26" fill="none" xmlns="http://www.w3.org/2000/svg">
<g opacity="0.9">
<path d="M22.9547 2.20724H21.272V1.24571C21.272 0.714945 20.8413 0.28418 20.3105 0.28418C19.7798 0.28418 19.349 0.714945 19.349 1.24571V2.20724H5.88758V1.24571C5.88758 0.714945 5.45682 0.28418 4.92605 0.28418C4.39529 0.28418 3.96452 0.714945 3.96452 1.24571V2.20724H2.28185C1.08907 2.20724 0.118408 3.1779 0.118408 4.37068V7.01488H25.1182V4.37068C25.1182 3.1779 24.1475 2.20724 22.9547 2.20724Z" fill="black"/>
<path d="M0.118164 23.1205C0.118164 24.3133 1.08883 25.284 2.2816 25.284H22.9545C24.1473 25.284 25.1179 24.3133 25.1179 23.1205V8.93799H0.118164V23.1205Z" fill="black"/>
<path d="M6.01555 20.7171C5.494 20.7171 5.01925 20.6168 4.59131 20.4162C4.17006 20.2156 3.80564 19.9448 3.49806 19.6038C3.19717 19.2561 2.96314 18.8683 2.79597 18.4403C2.62881 18.0057 2.54523 17.561 2.54523 17.1063C2.54523 16.6316 2.63215 16.1803 2.806 15.7523C2.98654 15.3177 3.2306 14.9332 3.53818 14.5989C3.85245 14.2579 4.22021 13.9904 4.64146 13.7965C5.0694 13.5959 5.53746 13.4956 6.04564 13.4956C6.5605 13.4956 7.02856 13.5992 7.44982 13.8065C7.87776 14.0138 8.24217 14.2913 8.54307 14.639C8.84396 14.9867 9.07799 15.3745 9.24516 15.8025C9.41232 16.2304 9.4959 16.6717 9.4959 17.1264C9.4959 17.5945 9.40898 18.0458 9.23513 18.4804C9.06128 18.9084 8.81722 19.2929 8.50295 19.6339C8.19537 19.9682 7.82761 20.2323 7.39967 20.4262C6.97841 20.6201 6.51704 20.7171 6.01555 20.7171ZM3.9494 17.1063C3.9494 17.4139 3.99621 17.7115 4.08982 17.999C4.18343 18.2865 4.31716 18.544 4.49102 18.7713C4.67155 18.992 4.88887 19.1691 5.14295 19.3029C5.40373 19.4299 5.69794 19.4934 6.02558 19.4934C6.35991 19.4934 6.65746 19.4266 6.91824 19.2929C7.17901 19.1524 7.39632 18.9686 7.57017 18.7412C7.74403 18.5072 7.87441 18.2497 7.96134 17.9689C8.05495 17.6814 8.10176 17.3939 8.10176 17.1063C8.10176 16.7988 8.05161 16.5046 7.95131 16.2237C7.8577 15.9362 7.72062 15.6821 7.54009 15.4615C7.36623 15.2341 7.14892 15.0569 6.88815 14.9299C6.63406 14.7961 6.34653 14.7293 6.02558 14.7293C5.68457 14.7293 5.38367 14.7995 5.12289 14.9399C4.86881 15.0736 4.65484 15.2542 4.48099 15.4815C4.30713 15.7089 4.1734 15.9629 4.07979 16.2438C3.99287 16.5246 3.9494 16.8121 3.9494 17.1063Z" fill="white"/>
<path d="M10.1264 17.0562C10.1264 16.6216 10.2033 16.197 10.3571 15.7824C10.5175 15.3612 10.7482 14.98 11.0491 14.639C11.35 14.2913 11.7178 14.0172 12.1524 13.8166C12.587 13.6093 13.0818 13.5056 13.6368 13.5056C14.2921 13.5056 14.8571 13.6494 15.3319 13.9369C15.8133 14.2244 16.171 14.5989 16.405 15.0603L15.3419 15.7924C15.2215 15.525 15.0644 15.3143 14.8705 15.1606C14.6766 15.0001 14.4693 14.8898 14.2486 14.8296C14.028 14.7627 13.8107 14.7293 13.5967 14.7293C13.249 14.7293 12.9448 14.7995 12.684 14.9399C12.4299 15.0803 12.2159 15.2642 12.0421 15.4915C11.8682 15.7189 11.7378 15.973 11.6509 16.2538C11.5707 16.5346 11.5305 16.8155 11.5305 17.0963C11.5305 17.4106 11.5807 17.7148 11.681 18.009C11.7813 18.2966 11.9217 18.554 12.1023 18.7813C12.2895 19.002 12.5101 19.1792 12.7642 19.3129C13.025 19.44 13.3092 19.5035 13.6168 19.5035C13.8374 19.5035 14.0614 19.4667 14.2888 19.3931C14.5161 19.3196 14.7267 19.2026 14.9206 19.0421C15.1145 18.8816 15.265 18.6743 15.372 18.4203L16.5053 19.0722C16.3649 19.4266 16.1342 19.7275 15.8133 19.9749C15.499 20.2223 15.1446 20.4095 14.7501 20.5365C14.3556 20.6636 13.9645 20.7271 13.5766 20.7271C13.0685 20.7271 12.6037 20.6235 12.1825 20.4162C11.7612 20.2022 11.3968 19.9214 11.0892 19.5737C10.7883 19.2193 10.551 18.8248 10.3771 18.3902C10.21 17.9489 10.1264 17.5042 10.1264 17.0562Z" fill="white"/>
<path d="M22.6909 14.7594H20.4141V20.6669H19.04V14.7594H16.7632V13.5458H22.6909V14.7594Z" fill="white"/>
</g>
</svg>

<svg width="26" height="26" fill="none" xmlns="http://www.w3.org/2000/svg"><g opacity=".9"><path d="M22.955 2.207h-1.683v-.961a.962.962 0 00-1.923 0v.961H5.888v-.961a.962.962 0 00-1.923 0v.961H2.282c-1.193 0-2.164.97-2.164 2.164v2.644h25V4.37c0-1.193-.97-2.164-2.163-2.164zM.118 23.12c0 1.193.97 2.164 2.164 2.164h20.672c1.193 0 2.164-.97 2.164-2.163V8.938h-25V23.12z" fill="#000"/><path d="M6.016 20.717c-.522 0-.997-.1-1.425-.3a3.46 3.46 0 01-1.093-.813 3.976 3.976 0 01-.702-1.164 3.687 3.687 0 01-.25-1.334c0-.474.086-.926.26-1.354.18-.434.425-.819.732-1.153a3.445 3.445 0 011.103-.803c.428-.2.896-.3 1.405-.3.514 0 .983.103 1.404.31.428.208.792.485 1.093.833.301.348.535.736.702 1.164.167.427.25.869.25 1.323 0 .468-.086.92-.26 1.354a3.798 3.798 0 01-.732 1.154 3.372 3.372 0 01-2.487 1.083zm-2.067-3.61c0 .307.047.605.14.892.094.288.228.545.402.772.18.221.398.398.652.532.26.127.555.19.883.19.334 0 .631-.066.892-.2.261-.14.478-.324.652-.552a2.55 2.55 0 00.391-.772c.094-.288.14-.575.14-.863 0-.307-.05-.601-.15-.882a2.33 2.33 0 00-.41-.763 1.802 1.802 0 00-.653-.531 1.823 1.823 0 00-.862-.2c-.341 0-.642.07-.903.21a1.93 1.93 0 00-.642.542 2.596 2.596 0 00-.401.762 2.9 2.9 0 00-.13.862zm6.177-.051a3.635 3.635 0 01.923-2.417 3.22 3.22 0 011.103-.822c.435-.208.93-.311 1.485-.311.655 0 1.22.143 1.695.43.481.288.839.663 1.073 1.124l-1.063.732a1.653 1.653 0 00-.472-.631 1.654 1.654 0 00-.621-.331 2.237 2.237 0 00-.652-.1c-.348 0-.652.07-.913.21-.254.14-.468.324-.642.552a2.423 2.423 0 00-.391.762c-.08.28-.12.561-.12.842 0 .315.05.619.15.913.1.288.24.545.421.772.188.221.408.398.662.532.261.127.545.19.853.19.22 0 .444-.036.672-.11.227-.073.438-.19.632-.35a1.6 1.6 0 00.451-.623l1.133.652c-.14.355-.37.655-.692.903a3.375 3.375 0 01-1.063.561 3.81 3.81 0 01-1.173.191c-.508 0-.973-.104-1.395-.31a3.655 3.655 0 01-1.093-.843 4.263 4.263 0 01-.712-1.184 3.742 3.742 0 01-.25-1.334zM22.69 14.76h-2.276v5.907H19.04v-5.908h-2.277v-1.213h5.928v1.213z" fill="#fff"/></g></svg>
